app/dist/common/images/broadridge.svg

<svg height="18" width="18" xmlns="http://www.w3.org/2000/svg"><path d="m0 0h18v18h-18z" fill="#00578e"/><g fill="#fff"><path d="m14 4.01-10-.01v10h10zm-2 6.818v.42c-1.098 0-1.955-.315-2.392-.704.07.179.153.368.26.546.743 1.313 2.054 1.986 3.966 2.007v.546c-2.68-.021-3.93-1.271-4.521-2.322a4.943 4.943 0 0 1 -.319-.682c-.885 1.943-2.959 1.964-2.994 1.964v-.61c.118 0 2.64-.083 2.64-3.004h.732c0-2.92 2.51-2.94 2.628-2.94v-.61c-.035 0-2.109.032-2.994 1.964a4.938 4.938 0 0 0 -.319-.682c-.59-1.03-1.842-2.28-4.522-2.3v-.274h9.67v4.853h-4.475c0 .074.22 1.828 2.64 1.828zm-7.835-5.862c1.901.021 3.223.694 3.967 2.007.106.189.189.367.26.546-.437-.389-1.294-.704-2.392-.704v.42c2.42 0 2.64 1.681 2.64 1.754h-4.475z"/><path d="m13 5h-8v8h8zm-9-1v10h10v-10z" fill-rule="evenodd"/></g></svg>

<!-- by TradingView --><svg width="18" height="18" xmlns="http://www.w3.org/2000/svg"><path fill="#00578E" d="M0 0h18v18H0z"/><path d="M14 4.01L4 4v10h10V4.01zm-2 6.818v.42c-1.098 0-1.955-.315-2.392-.704.07.179.153.368.26.546.743 1.313 2.054 1.986 3.966 2.007v.546c-2.68-.021-3.93-1.271-4.521-2.322a4.943 4.943 0 01-.319-.682C8.109 12.582 6.035 12.603 6 12.603v-.61c.118 0 2.64-.083 2.64-3.004h.732c0-2.92 2.51-2.94 2.628-2.94v-.61c-.035 0-2.109.032-2.994 1.964a4.938 4.938 0 00-.319-.682c-.59-1.03-1.842-2.28-4.522-2.3v-.274h9.67V9H9.36c0 .074.22 1.828 2.64 1.828zM4.165 4.966c1.901.021 3.223.694 3.967 2.007.106.189.189.367.26.546C7.955 7.13 7.098 6.815 6 6.815v.42c2.42 0 2.64 1.681 2.64 1.754H4.165V4.966z" fill="#fff"/><path fill-rule="evenodd" d="M13 5H5v8h8V5zM4 4v10h10V4H4z" fill="#fff"/></svg>
